X: 2
T: les Youp' Nanettes II
R: bourree 2
S: Qu\'ebec City workshop, from Betsy Hooper
M: 2/4
L: 1/8
K: G
|:\
"G"g2 d2 | "G"B2 G2 | "D7"A>B cA | "G"B>c dd |\
"G"g2 d2 | "G"B2 G2 | "D7"A>B cA |1 "G"G4 :|2 "G"G2 d2 |
|:\
"G"B>d Bd | "C"e2 c2 | "C"eg "D7"fe | "G"d2 d2 |\
"G"B>d Bd | "C"e2 e2 | "G"d>c BA |1 "G"G2 d2 :|2 "G"G4 |]
